X:4389070
T:Lady of the Pond
C:Doug Protsik
S:Old Grey Goose, $2Old-Time Country Song & Dance Band$0 (cassette), 1993.
N:From NH Country Dance (URL below), along with many New England, Canadian & Swedish
N:tunes, and resources for abc notation and New England traditional music and dance.
%
N: Note #1: To preserve formatting (font, spacing, etc.), use the
N: file header at the URL below; just follow accompanying instructions.
%
N: Note #2: This abc code is optimized for use with abcm2ps, which is used by
N: EasyABC and other abc apps. To use abc2svg for display or printing look to see if there
N: is a file optimized for abc2svg. If not you may need to adjust the spacing in places.
%
Z:abc-transcription Peter Yarensky. I rely heavily on careful listening to the
Z:named sources aided by software to hear details. While not perfect, known
Z:substantial differences from other written sources receive careful attention.
Z:abc-copyright Peter Yarensky. You may reproduce this tune freely but
Z:please include the entire abc file including all the notes.
%%writefields HQSD
U:s = !slide!
U:t = !trill!
F:Tunes Home Page - https://fiddle-tunes.nhcountrydance.com/
F:abc Header & its Usage - https://fiddle-tunes.nhcountrydance.com/header-page/
M:6/8
L:1/8
R:Jig
G:Jigs
N: Tune Tags ~ Jig, New England Repertoire, Doug Protsik
K:D
d/e/ |!segno!yy\
"D" f2f fgf     | "D" d2d ded      | "G" B2d edB  | "D" A3- A2A |
"G" B2d dcB     | "D" A2d {de}.f2f | "E7" e2d c2d | "A7" ez2 A3 |
"D" f2f fgf     | "D" d2d ded      | "G" B2d edB  | "D" A3- A2A |
"G" BdB "D" Adf | "G" BdB "D" Adf  | "A7" efe edc | "D" d3 d2   ||
|: A |\
"G" BdB GBd     | "D" AFA def      | "A7" efe edc | "D" d2e .fzB |
"G" BdB GBd     | "D" AFA def      | "A7" efe edc |1 "D" d3 d2  :|2 "D" d3 "A7" e3 y!D.S.!y |]
%%vskip 20

